src/lib/packages/icons/src/assets/filled/file-code.svg

<svg xmlns="http://www.w3.org/2000/svg" width="24" height="24" fill="none"><path fill="currentColor" d="M14.75 6V3.75l4.5 4.5H17c-1.58 0-2.25-.67-2.25-2.25ZM20 9.75V18c0 2-1 3-3 3H8c-2 0-3-1-3-3V6c0-2 1-3 3-3h5.25v3c0 2.42 1.33 3.75 3.75 3.75h3ZM9.061 16l1.47-1.47a.75.75 0 1 0-1.061-1.061l-2 2a.75.75 0 0 0 0 1.061l2 2a.748.748 0 0 0 1.06 0 .75.75 0 0 0 0-1.061L9.061 16Zm6.469-.53-2-2a.75.75 0 1 0-1.061 1.061l1.47 1.47-1.47 1.47a.75.75 0 0 0 1.06 1.061l2-2a.75.75 0 0 0 .001-1.062Z"/></svg>

<svg width="24" height="24" viewBox="0 0 24 24" fill="none" xmlns="http://www.w3.org/2000/svg">
<path d="M14.75 6V3.75L19.25 8.25H17C15.42 8.25 14.75 7.58 14.75 6ZM20 9.75V18C20 20 19 21 17 21H8C6 21 5 20 5 18V6C5 4 6 3 8 3H13.25V6C13.25 8.42 14.58 9.75 17 9.75H20ZM9.06104 16L10.531 14.53C10.824 14.237 10.824 13.762 10.531 13.469C10.238 13.176 9.76297 13.176 9.46997 13.469L7.46997 15.469C7.17697 15.762 7.17697 16.237 7.46997 16.53L9.46997 18.53C9.61597 18.676 9.808 18.75 10 18.75C10.192 18.75 10.384 18.677 10.53 18.53C10.823 18.237 10.823 17.762 10.53 17.469L9.06104 16ZM15.53 15.47L13.53 13.47C13.237 13.177 12.762 13.177 12.469 13.47C12.176 13.763 12.176 14.238 12.469 14.531L13.939 16.001L12.469 17.471C12.176 17.764 12.176 18.239 12.469 18.532C12.615 18.678 12.807 18.752 12.999 18.752C13.191 18.752 13.3831 18.679 13.5291 18.532L15.5291 16.532C15.8231 16.238 15.823 15.762 15.53 15.47Z" fill="currentColor"/>
</svg>
